X: 36177
T: Scott Mac Millan's Nightmare
R: slip jig
M: 9/8
K: Dmajor
A3 AGF G2B|ABA AGF G2B|ADD AB=C' D'C'B|=C'BA GAF G3:|
AD'D' D'E'D' C'AG|FAD' D'E'F' G'F'G'|A'G'E' C'D'E' D'C'B|AD'F DEF G3:|

